X:1
T:Green Hill (Stebbins), CMD
T:Green Hill (Stebbins), CMD
T:George Coles Stebbins, 1878
T:Public Domain Courtesy of the Cyber Hymnal™
C:George Coles Stebbins, 1878
Z:Public Domain
Z:Courtesy of the Cyber Hymnal™
%%score ( 1 2 ) ( 3 4 )
L:1/8
Q:1/4=110
M:6/8
K:Eb
V:1 treble 
V:2 treble 
V:3 bass 
V:4 bass 
V:1
 [EG] | [EG]2 [EG] [EA]2 [EG] | [DG]2 [B,F] [B,E]2 [EG] | [EB]2 [EB] [DB]2 [DA] | %4
 [EG]3- [EG]2 [EG] | [EG]2 [EG] [EA]2 [EG] | [DG]2 [DF] [CE]2 G | [FB]2 [F=A] [EG]2 [EA] | %8
 [DB]3- [DB]2 [FB] | [Ad]2 [Gc] [FB]2 [EA] | [EG]2 [EA] [EB]2 [EB] | [Ec]2 [Gc] [FB]2 [E=A] | %12
 [DB]3- [DB]2 [DA] | [EG]2 [DA] [EB]2 [Ee] | [Ee]2 [E=A] [EB]2 [Ec] | (BA)[EG] [DG]2 [B,F] | %16
 [B,E]3 |] %17
V:2
 x | x6 | x6 | x6 | x6 | x6 | x5 G | x6 | x6 | x6 | x6 | x6 | x6 | x6 | x6 | E2 x4 | x3 |] %17
V:3
 [E,B,] | [E,B,]2 [E,B,] [E,C]2 [E,B,] | [B,,B,]2 [B,,A,] [E,G,]2 [E,B,] | %3
 [B,,G,]2 [B,,G,] [B,,F,]2 [B,,B,] | [E,B,]3- [E,B,]2 [E,B,] | [E,B,]2 [E,B,] [E,C]2 [E,B,] | %6
 [B,,B,]2 [B,,A,] [C,G,]2 [E,C] | [F,D]2 [F,C] [F,C]2 [F,C] | [B,,B,]3- [B,,B,]2 [B,D] | %9
 [B,F]2 [B,E] [B,,D]2 [B,,C] | [E,B,]2 [E,F,] [E,G,]2 [E,G,] | [C,G,]2 [E,C] [F,D]2 [F,C] | %12
 [B,,B,]3- [B,,B,]2 [B,,B,] | [E,B,]2 [F,B,] [G,B,]2 [E,G,] | [_C,^F,]2 [C,F,] [B,,G,]2 [=A,,=F,] | %15
 (G,C)[B,,B,] [B,,B,]2 [B,,A,] | [E,G,]3 |] %17
V:4
 x | x6 | x6 | x6 | x6 | x6 | x6 | x6 | x6 | x6 | x6 | x6 | x6 | x6 | x6 | B,,2 x4 | x3 |] %17

